X:398
T: Wid[d]ow Dickens
N: O'Farrell's Pocket Companion v.4 (Sky ed. p.170)
M: 2/4
L: 1/8
R: polka
Q: 240
K: G
G| B2dB| c2ec| BdBd | AFED|
g2dB| g2dB| cAFD| G2G :|
z| G2BG| G2BG| A2cA| A2cA|
B2dB| c2ed| cBAG| FAFD|
G2BG| G2BG| A2cA| A2cA|
B2dB| c2ec| BGAF| G2G ||
